icons/recurrence-16.svg

<svg id="icons" xmlns="http://www.w3.org/2000/svg" viewBox="0 0 16 16"><path d="M2.73389,5.87891A2.71047,2.71047,0,0,0,2.4585,9.22363a1.06043,1.06043,0,0,0,.09375.12793l-.75489.65625a2.14465,2.14465,0,0,1-.17724-.23926,3.67928,3.67928,0,0,1,.40674-4.59667A3.97127,3.97127,0,0,1,4.85547,4h6.165L9.419,2.39844l.707-.707L12.93457,4.5,10.126,7.30859l-.707-.707L11.02051,5h-6.165A2.981,2.981,0,0,0,2.73389,5.87891Zm11.65673.35254a1.93312,1.93312,0,0,0-.1748-.23731l-.75879.65234a1.0971,1.0971,0,0,1,.09522.12989,2.7105,2.7105,0,0,1-.27539,3.34472A2.981,2.981,0,0,1,11.15527,11H4.97949L6.58105,9.39844l-.707-.707L3.06543,11.5,5.874,14.30859l.707-.707L4.97949,12h6.17578a3.97131,3.97131,0,0,0,2.82862-1.17188A3.80024,3.80024,0,0,0,14.39062,6.23145Z"/><path fill="none" d="M0 0h16v16H0z"/></svg>

<svg xmlns="http://www.w3.org/2000/svg" viewBox="0 0 16 16"><path d="M2.734 5.879a2.71 2.71 0 0 0-.276 3.345 1.06 1.06 0 0 0 .094.128l-.755.656a2.145 2.145 0 0 1-.177-.24 3.68 3.68 0 0 1 .407-4.596A3.971 3.971 0 0 1 4.855 4h6.165l-1.6-1.602.707-.707L12.935 4.5l-2.809 2.809-.707-.707L11.021 5H4.856a2.981 2.981 0 0 0-2.122.879zm11.657.352a1.933 1.933 0 0 0-.175-.237l-.759.652a1.097 1.097 0 0 1 .095.13 2.71 2.71 0 0 1-.275 3.345 2.981 2.981 0 0 1-2.122.879H4.98l1.602-1.602-.707-.707-2.81 2.809 2.809 2.809.707-.707L4.979 12h6.176a3.971 3.971 0 0 0 2.829-1.172 3.8 3.8 0 0 0 .407-4.597z"/><path fill="none" d="M0 0h16v16H0z"/></svg>
